X:490
T:White Cockade #1, The
C:Joe Buchanan's Scottish Tome - Page 167.2
I:170 2
Z:Carl Allison
R:Polka
L:1/8
M:C
K:D
DE | "D"F2 F2 F2 ED | "D"F2 F2 F2 d2 | "D"A2 F2 "Bm"GFED | "Em"F2 E2 E2 "A7"DE |
"D"F2 F2 GFED | "D"F2 A2 "Bm"d3 e | "D"fedc "G"edcB | "D"A2 F2 F2 FG |
"D"A2 F2 d2 F2 | "D"A2 A2 A2 B2 | "D"F2 A2 "Bm"d2 cd | "Em"e2 E2 E2 "A7"DE |
"D"F2 FA GFED | "D"F2 "A/C#"A2 "Bm"d3 e | "D"fedc "G"edcB | "D"A2 F2 F2 :|

